src/app/client/src/assets/images/badge.svg

<?xml version="1.0" encoding="UTF-8"?>
<svg width="61px" height="84px" viewBox="0 0 61 84" version="1.1" xmlns="http://www.w3.org/2000/svg" xmlns:xlink="http://www.w3.org/1999/xlink">
    <!-- Generator: sketchtool 53.1 (72631) - https://sketchapp.com -->
    <title>FF75D948-9949-4771-AE35-2B38F8AD10D4</title>
    <desc>Created with sketchtool.</desc>
    <g id="Certificate-Scan-Screen" stroke="none" stroke-width="1" fill="none" fill-rule="evenodd">
        <g id="04" transform="translate(-610.000000, -104.000000)">
            <g id="Group-2" transform="translate(610.000000, 104.000000)">
                <path d="M48.4315437,35.119156 L29,45.5073328 L39.5684563,80.119156 C43.8985473,70.2106371 46.1196188,65.226426 46.2316707,65.1665227 C46.3380552,65.1096491 50.5941649,66.6311346 59,69.7309791 L48.4315437,35.119156 Z" id="Rectangle" stroke="#FA6400" stroke-width="2" fill="#E55A28"></path>
                <path d="M12.5684563,36.119156 L32,46.5073328 L21.4315437,81.119156 C17.1014527,71.2106371 14.8803812,66.226426 14.7683293,66.1665227 C14.6619448,66.1096491 10.4058351,67.6311346 2,70.7309791 L12.5684563,36.119156 Z" id="Rectangle" stroke="#FA6400" stroke-width="2" fill="#E55A28"></path>
                <circle id="Oval" fill="#F7B500" cx="29.9591837" cy="29" r="29"></circle>
                <circle id="Oval" stroke="#E4AF1E" stroke-width="2" cx="29.9591837" cy="29" r="23"></circle>
                <path d="M29.9977197,37.5407973 L23.1264491,41.1149529 C22.6364848,41.3698125 22.0326857,41.1792224 21.7778262,40.689258 C21.6777219,40.4968088 21.6429119,40.2770269 21.6786466,40.0630628 L22.9545312,32.4236214 C23.0082398,32.1020376 22.9018041,31.7744623 22.6693308,31.5458647 L17.1467674,26.1153729 C16.7529743,25.728145 16.7476521,25.0950024 17.1348799,24.7012093 C17.2869761,24.5465344 17.4852442,24.4455117 17.6997787,24.4133789 L25.3595894,23.2661001 C25.6820305,23.2178051 25.9606828,23.0153524 26.1062538,22.7236166 L29.5643925,15.7932324 C29.8109793,15.2990529 30.4114891,15.0983394 30.9056686,15.3449262 C31.0997735,15.4417811 31.2571199,15.5991276 31.3539748,15.7932324 L34.8121135,22.7236166 C34.9576845,23.0153524 35.2363368,23.2178051 35.558778,23.2661001 L43.2185886,24.4133789 C43.7647808,24.495187 44.1412384,25.0042819 44.0594303,25.550474 C44.0272975,25.7650085 43.9262749,25.9632767 43.7716,26.1153729 L38.2490366,31.5458647 C38.0165632,31.7744623 37.9101275,32.1020376 37.9638361,32.4236214 L39.2397208,40.0630628 C39.3306993,40.6078026 38.9628531,41.123154 38.4181134,41.2141325 C38.2041494,41.2498672 37.9843675,41.2150572 37.7919182,41.1149529 L30.9206477,37.5407973 C30.6314002,37.3903426 30.2869671,37.3903426 29.9977197,37.5407973 Z" id="Star" stroke="#DDA509" fill="#FFEAB1"></path>
            </g>
        </g>
    </g>
</svg>

<svg xmlns="http://www.w3.org/2000/svg" width="61" height="84" fill="none" fill-rule="evenodd" xmlns:v="https://vecta.io/nano"><g stroke="#fa6400" stroke-width="2" fill="#e55a28"><path d="M48.432 35.12L29 45.507 39.568 80.12l6.663-14.953C46.338 65.1 50.594 66.63 59 69.73L48.432 35.12z"/><path d="M12.568 36.12L32 46.507 21.432 81.12l-6.663-14.953C14.662 66.1 10.406 67.63 2 70.73L12.568 36.12z"/></g><circle fill="#f7b500" cx="29.959" cy="29" r="29"/><circle stroke="#e4af1e" stroke-width="2" cx="29.959" cy="29" r="23"/><path d="M29.998 37.54l-6.87 3.574a1 1 0 0 1-1.448-1.052l1.276-7.64a1 1 0 0 0-.285-.878l-5.523-5.43a1 1 0 0 1 .553-1.702l7.66-1.147a1 1 0 0 0 .747-.542l3.458-6.93a1 1 0 0 1 1.79 0l3.458 6.93a1 1 0 0 0 .747.542l7.66 1.147a1 1 0 0 1 .553 1.702l-5.523 5.43a1 1 0 0 0-.285.878l1.276 7.64a1 1 0 0 1-1.448 1.052l-6.87-3.574a1 1 0 0 0-.923 0z" stroke="#dda509" fill="#ffeab1"/></svg>
